img/python-flowchart-conditional.svg

<?xml version="1.0" encoding="UTF-8" standalone="no"?>
<svg
   xmlns:ooo="http://xml.openoffice.org/svg/export"
   xmlns:dc="http://purl.org/dc/elements/1.1/"
   xmlns:cc="http://creativecommons.org/ns#"
   xmlns:rdf="http://www.w3.org/1999/02/22-rdf-syntax-ns#"
   xmlns:svg="http://www.w3.org/2000/svg"
   xmlns="http://www.w3.org/2000/svg"
   xmlns:sodipodi="http://sodipodi.sourceforge.net/DTD/sodipodi-0.dtd"
   xmlns:inkscape="http://www.inkscape.org/namespaces/inkscape"
   version="1.2"
   width="338.42126"
   height="267.55511"
   viewBox="0 0 9551.0001 7550.9999"
   preserveAspectRatio="xMidYMid"
   clip-path="url(#presentation_clip_path)"
   xml:space="preserve"
   id="svg10540"
   inkscape:version="0.48.2 r9819"
   sodipodi:docname="python-flowchart-conditional.svg"
   style="fill-rule:evenodd;stroke-width:28.22200012;stroke-linejoin:round"><metadata
   id="metadata10683"><rdf:RDF><cc:Work
       rdf:about=""><dc:format>image/svg+xml</dc:format><dc:type
         rdf:resource="http://purl.org/dc/dcmitype/StillImage" /></cc:Work></rdf:RDF></metadata><sodipodi:namedview
   pagecolor="#ffffff"
   bordercolor="#666666"
   borderopacity="1"
   objecttolerance="10"
   gridtolerance="10"
   guidetolerance="10"
   inkscape:pageopacity="0"
   inkscape:pageshadow="2"
   inkscape:window-width="640"
   inkscape:window-height="480"
   id="namedview10681"
   showgrid="false"
   fit-margin-top="0"
   fit-margin-left="0"
   fit-margin-right="0"
   fit-margin-bottom="0"
   inkscape:zoom="0.23838384"
   inkscape:cx="340.86614"
   inkscape:cy="-189.35433"
   inkscape:window-x="0"
   inkscape:window-y="0"
   inkscape:window-maximized="0"
   inkscape:current-layer="svg10540" />
 <defs
   class="ClipPathGroup"
   id="defs10542">
  <clipPath
   id="presentation_clip_path"
   clipPathUnits="userSpaceOnUse">
   <rect
   x="0"
   y="0"
   width="21590"
   height="27940"
   id="rect10545" />
  </clipPath>
 </defs>
 <defs
   class="TextShapeIndex"
   id="defs10547">
  <g
   ooo:slide="id1"
   ooo:id-list="id3 id4 id5 id6 id7 id8 id9 id10 id11"
   id="g10549" />
 </defs>
 <defs
   class="EmbeddedBulletChars"
   id="defs10551">
  <g
   id="bullet-char-template(57356)"
   transform="scale(4.8828125e-4,-4.8828125e-4)">
   <path
   d="M 580,1141 1163,571 580,0 -4,571 580,1141 z"
   id="path10554"
   inkscape:connector-curvature="0" />
  </g>
  <g
   id="bullet-char-template(57354)"
   transform="scale(4.8828125e-4,-4.8828125e-4)">
   <path
   d="m 8,1128 1129,0 L 1137,0 8,0 8,1128 z"
   id="path10557"
   inkscape:connector-curvature="0" />
  </g>
  <g
   id="bullet-char-template(10146)"
   transform="scale(4.8828125e-4,-4.8828125e-4)">
   <path
   d="M 174,0 602,739 174,1481 1456,739 174,0 z m 1184,739 -1049,607 350,-607 699,0 z"
   id="path10560"
   inkscape:connector-curvature="0" />
  </g>
  <g
   id="bullet-char-template(10132)"
   transform="scale(4.8828125e-4,-4.8828125e-4)">
   <path
   d="M 2015,739 1276,0 717,0 l 543,543 -1086,0 0,393 1086,0 -543,545 557,0 741,-742 z"
   id="path10563"
   inkscape:connector-curvature="0" />
  </g>
  <g
   id="bullet-char-template(10007)"
   transform="scale(4.8828125e-4,-4.8828125e-4)">
   <path
   d="m 0,-2 c -7,16 -16,29 -25,39 l 381,530 c -94,256 -141,385 -141,387 0,25 13,38 40,38 9,0 21,-2 34,-5 21,4 42,12 65,25 l 27,-13 111,-251 280,301 64,-25 24,25 c 21,-10 41,-24 62,-43 C 886,937 835,863 770,784 769,783 710,716 594,584 L 774,223 c 0,-27 -21,-55 -63,-84 l 16,-20 C 717,90 699,76 672,76 641,76 570,178 457,381 L 164,-76 c -22,-34 -53,-51 -92,-51 -42,0 -63,17 -64,51 -7,9 -10,24 -10,44 0,9 1,19 2,30 z"
   id="path10566"
   inkscape:connector-curvature="0" />
  </g>
  <g
   id="bullet-char-template(10004)"
   transform="scale(4.8828125e-4,-4.8828125e-4)">
   <path
   d="M 285,-33 C 182,-33 111,30 74,156 52,228 41,333 41,471 c 0,78 14,145 41,201 34,71 87,106 158,106 53,0 88,-31 106,-94 l 23,-176 c 8,-64 28,-97 59,-98 l 735,706 c 11,11 33,17 66,17 42,0 63,-15 63,-46 l 0,-122 c 0,-36 -10,-64 -30,-84 L 442,47 C 390,-6 338,-33 285,-33 z"
   id="path10569"
   inkscape:connector-curvature="0" />
  </g>
  <g
   id="bullet-char-template(9679)"
   transform="scale(4.8828125e-4,-4.8828125e-4)">
   <path
   d="M 813,0 C 632,0 489,54 383,161 276,268 223,411 223,592 c 0,181 53,324 160,431 106,107 249,161 430,161 179,0 323,-54 432,-161 108,-107 162,-251 162,-431 0,-180 -54,-324 -162,-431 C 1136,54 992,0 813,0 z"
   id="path10572"
   inkscape:connector-curvature="0" />
  </g>
  <g
   id="bullet-char-template(8226)"
   transform="scale(4.8828125e-4,-4.8828125e-4)">
   <path
   d="m 346,457 c -73,0 -137,26 -191,78 -54,51 -81,114 -81,188 0,73 27,136 81,188 54,52 118,78 191,78 73,0 134,-26 185,-79 51,-51 77,-114 77,-187 0,-75 -25,-137 -76,-188 -50,-52 -112,-78 -186,-78 z"
   id="path10575"
   inkscape:connector-curvature="0" />
  </g>
  <g
   id="bullet-char-template(8211)"
   transform="scale(4.8828125e-4,-4.8828125e-4)">
   <path
   d="m -4,459 1139,0 0,147 -1139,0 0,-147 z"
   id="path10578"
   inkscape:connector-curvature="0" />
  </g>
 </defs>
 <defs
   class="TextEmbeddedBitmaps"
   id="defs10580" />
 <g
   id="g10582"
   transform="translate(-1175,-1075)">
  <g
   id="id2"
   class="Master_Slide">
   <g
   id="bg-id2"
   class="Background" />
   <g
   id="bo-id2"
   class="BackgroundObjects" />
  </g>
 </g>
 <g
   class="SlideGroup"
   id="g10587"
   transform="translate(-1175,-1075)">
  <g
   id="g10589">
   <g
   id="id1"
   class="Slide"
   clip-path="url(#presentation_clip_path)">
    <g
   class="Page"
   id="g10592">
     <g
   class="com.sun.star.drawing.CustomShape"
   id="g10594">
      <g
   id="id3">
       <path
   d="m 4250,3250 1600,-850 1601,850 -1601,851 -1600,-851 0,0 z"
   id="path10597"
   inkscape:connector-curvature="0"
   style="fill:none;stroke:#000000;stroke-width:50" />
       <text
   class="TextShape"
   id="text10599"><tspan
     class="TextParagraph"
     font-size="388px"
     font-weight="400"
     id="tspan10601"
     style="font-size:388px;font-weight:400;font-family:'Arial, sans-serif'"><tspan
       class="TextPosition"
       x="4927"
       y="3385"
       id="tspan10603"><tspan
         id="tspan10605"
         style="fill:#000000;stroke:none">num &gt; 100</tspan></tspan></tspan></text>

      </g>
     </g>
     <g
   class="com.sun.star.drawing.LineShape"
   id="g10607">
      <g
   id="id4">
       <path
   d="m 5850,1100 0,763"
   id="path10610"
   inkscape:connector-curvature="0"
   style="fill:none;stroke:#000000;stroke-width:50" />
       <path
   d="m 5850,2400 188,-562 -375,0 187,562 z"
   id="path10612"
   inkscape:connector-curvature="0"
   style="fill:#000000;stroke:none" />
      </g>
     </g>
     <g
   class="com.sun.star.drawing.CustomShape"
   id="g10614">
      <g
   id="id5">
       <path
   d="m 1200,4300 2801,0 0,1201 -2801,0 0,-1201 0,0 z"
   id="path10617"
   inkscape:connector-curvature="0"
   style="fill:none;stroke:#000000;stroke-width:50" />
       <text
   class="TextShape"
   id="text10619"><tspan
     class="TextParagraph"
     font-size="388px"
     font-weight="400"
     id="tspan10621"
     style="font-size:388px;font-weight:400;font-family:'Arial, sans-serif'"><tspan
       class="TextPosition"
       x="1481"
       y="5035"
       id="tspan10623"><tspan
         id="tspan10625"
         style="fill:#000000;stroke:none">print 'greater'</tspan></tspan></tspan></text>

      </g>
     </g>
     <g
   class="com.sun.star.drawing.CustomShape"
   id="g10627">
      <g
   id="id6">
       <path
   d="m 7500,4300 3201,0 0,1201 -3201,0 0,-1201 0,0 z"
   id="path10630"
   inkscape:connector-curvature="0"
   style="fill:none;stroke:#000000;stroke-width:50" />
       <text
   class="TextShape"
   id="text10632"><tspan
     class="TextParagraph"
     font-size="388px"
     font-weight="400"
     id="tspan10634"
     style="font-size:388px;font-weight:400;font-family:'Arial, sans-serif'"><tspan
       class="TextPosition"
       x="7656"
       y="5035"
       id="tspan10636"><tspan
         id="tspan10638"
         style="fill:#000000;stroke:none">print 'not greater'</tspan></tspan></tspan></text>

      </g>
     </g>
     <g
   class="com.sun.star.drawing.CustomShape"
   id="g10640">
      <g
   id="id7">
       <path
   d="m 4500,7400 2801,0 0,1201 -2801,0 0,-1201 0,0 z"
   id="path10643"
   inkscape:connector-curvature="0"
   style="fill:none;stroke:#000000;stroke-width:50" />
       <text
   class="TextShape"
   id="text10645"><tspan
     class="TextParagraph"
     font-size="388px"
     font-weight="400"
     id="tspan10647"
     style="font-size:388px;font-weight:400;font-family:'Arial, sans-serif'"><tspan
       class="TextPosition"
       x="4963"
       y="8135"
       id="tspan10649"><tspan
         id="tspan10651"
         style="fill:#000000;stroke:none">print 'done'</tspan></tspan></tspan></text>

      </g>
     </g>
     <g
   class="com.sun.star.drawing.ConnectorShape"
   id="g10653">
      <g
   id="id8">
       <path
   d="m 4250,3250 -1650,0 0,513"
   id="path10656"
   inkscape:connector-curvature="0"
   style="fill:none;stroke:#000000;stroke-width:50" />
       <path
   d="m 2600,4300 188,-562 -375,0 187,562 z"
   id="path10658"
   inkscape:connector-curvature="0"
   style="fill:#000000;stroke:none" />
      </g>
     </g>
     <g
   class="com.sun.star.drawing.ConnectorShape"
   id="g10660">
      <g
   id="id9">
       <path
   d="m 7450,3250 1650,0 0,513"
   id="path10663"
   inkscape:connector-curvature="0"
   style="fill:none;stroke:#000000;stroke-width:50" />
       <path
   d="m 9100,4300 188,-562 -375,0 187,562 z"
   id="path10665"
   inkscape:connector-curvature="0"
   style="fill:#000000;stroke:none" />
      </g>
     </g>
     <g
   class="com.sun.star.drawing.ConnectorShape"
   id="g10667">
      <g
   id="id10">
       <path
   d="m 2600,5500 0,750 3300,0 0,613"
   id="path10670"
   inkscape:connector-curvature="0"
   style="fill:none;stroke:#000000;stroke-width:50" />
       <path
   d="m 5900,7400 188,-562 -375,0 187,562 z"
   id="path10672"
   inkscape:connector-curvature="0"
   style="fill:#000000;stroke:none" />
      </g>
     </g>
     <g
   class="com.sun.star.drawing.ConnectorShape"
   id="g10674">
      <g
   id="id11">
       <path
   d="m 9100,5500 0,750 -3200,0 0,613"
   id="path10677"
   inkscape:connector-curvature="0"
   style="fill:none;stroke:#000000;stroke-width:50" />
       <path
   d="m 5900,7400 188,-562 -375,0 187,562 z"
   id="path10679"
   inkscape:connector-curvature="0"
   style="fill:#000000;stroke:none" />
      </g>
     </g>
    </g>
   </g>
  </g>
 </g>
</svg>

<?xml version="1.0" encoding="UTF-8"?>
<!DOCTYPE svg PUBLIC "-//W3C//DTD SVG 1.1//EN" "http://www.w3.org/Graphics/SVG/1.1/DTD/svg11.dtd">
<svg version="1.2" width="215.9mm" height="279.4mm" viewBox="0 0 21590 27940" preserveAspectRatio="xMidYMid" fill-rule="evenodd" clip-path="url(#presentation_clip_path)" stroke-width="28.222" stroke-linejoin="round" xmlns="http://www.w3.org/2000/svg" xmlns:ooo="http://xml.openoffice.org/svg/export" xmlns:xlink="http://www.w3.org/1999/xlink" xml:space="preserve">
 <defs class="ClipPathGroup">
  <clipPath id="presentation_clip_path" clipPathUnits="userSpaceOnUse">
   <rect x="0" y="0" width="21590" height="27940"/>
  </clipPath>
 </defs>
 <defs class="TextShapeIndex">
  <g ooo:slide="id1" ooo:id-list="id3 id4 id5 id6 id7 id8 id9 id10 id11"/>
 </defs>
 <defs class="EmbeddedBulletChars">
  <g id="bullet-char-template(57356)" transform="scale(0.00048828125,-0.00048828125)">
   <path d="M 580,1141 L 1163,571 580,0 -4,571 580,1141 Z"/>
  </g>
  <g id="bullet-char-template(57354)" transform="scale(0.00048828125,-0.00048828125)">
   <path d="M 8,1128 L 1137,1128 1137,0 8,0 8,1128 Z"/>
  </g>
  <g id="bullet-char-template(10146)" transform="scale(0.00048828125,-0.00048828125)">
   <path d="M 174,0 L 602,739 174,1481 1456,739 174,0 Z M 1358,739 L 309,1346 659,739 1358,739 Z"/>
  </g>
  <g id="bullet-char-template(10132)" transform="scale(0.00048828125,-0.00048828125)">
   <path d="M 2015,739 L 1276,0 717,0 1260,543 174,543 174,936 1260,936 717,1481 1274,1481 2015,739 Z"/>
  </g>
  <g id="bullet-char-template(10007)" transform="scale(0.00048828125,-0.00048828125)">
   <path d="M 0,-2 C -7,14 -16,27 -25,37 L 356,567 C 262,823 215,952 215,954 215,979 228,992 255,992 264,992 276,990 289,987 310,991 331,999 354,1012 L 381,999 492,748 772,1049 836,1024 860,1049 C 881,1039 901,1025 922,1006 886,937 835,863 770,784 769,783 710,716 594,584 L 774,223 C 774,196 753,168 711,139 L 727,119 C 717,90 699,76 672,76 641,76 570,178 457,381 L 164,-76 C 142,-110 111,-127 72,-127 30,-127 9,-110 8,-76 1,-67 -2,-52 -2,-32 -2,-23 -1,-13 0,-2 Z"/>
  </g>
  <g id="bullet-char-template(10004)" transform="scale(0.00048828125,-0.00048828125)">
   <path d="M 285,-33 C 182,-33 111,30 74,156 52,228 41,333 41,471 41,549 55,616 82,672 116,743 169,778 240,778 293,778 328,747 346,684 L 369,508 C 377,444 397,411 428,410 L 1163,1116 C 1174,1127 1196,1133 1229,1133 1271,1133 1292,1118 1292,1087 L 1292,965 C 1292,929 1282,901 1262,881 L 442,47 C 390,-6 338,-33 285,-33 Z"/>
  </g>
  <g id="bullet-char-template(9679)" transform="scale(0.00048828125,-0.00048828125)">
   <path d="M 813,0 C 632,0 489,54 383,161 276,268 223,411 223,592 223,773 276,916 383,1023 489,1130 632,1184 813,1184 992,1184 1136,1130 1245,1023 1353,916 1407,772 1407,592 1407,412 1353,268 1245,161 1136,54 992,0 813,0 Z"/>
  </g>
  <g id="bullet-char-template(8226)" transform="scale(0.00048828125,-0.00048828125)">
   <path d="M 346,457 C 273,457 209,483 155,535 101,586 74,649 74,723 74,796 101,859 155,911 209,963 273,989 346,989 419,989 480,963 531,910 582,859 608,796 608,723 608,648 583,586 532,535 482,483 420,457 346,457 Z"/>
  </g>
  <g id="bullet-char-template(8211)" transform="scale(0.00048828125,-0.00048828125)">
   <path d="M -4,459 L 1135,459 1135,606 -4,606 -4,459 Z"/>
  </g>
 </defs>
 <defs class="TextEmbeddedBitmaps"/>
 <g>
  <g id="id2" class="Master_Slide">
   <g id="bg-id2" class="Background"/>
   <g id="bo-id2" class="BackgroundObjects"/>
  </g>
 </g>
 <g class="SlideGroup">
  <g>
   <g id="id1" class="Slide" clip-path="url(#presentation_clip_path)">
    <g class="Page">
     <g class="com.sun.star.drawing.CustomShape">
      <g id="id3">
       <path fill="none" stroke="rgb(0,0,0)" stroke-width="50" d="M 4250,3250 L 5850,2400 7451,3250 5850,4101 4250,3250 4250,3250 Z"/>
       <text class="TextShape"><tspan class="TextParagraph" font-family="Arial, sans-serif" font-size="388px" font-weight="400"><tspan class="TextPosition" x="4927" y="3385"><tspan fill="rgb(0,0,0)" stroke="none">num &gt; 100</tspan></tspan></tspan></text>
      </g>
     </g>
     <g class="com.sun.star.drawing.LineShape">
      <g id="id4">
       <path fill="none" stroke="rgb(0,0,0)" stroke-width="50" d="M 5850,1100 L 5850,1863"/>
       <path fill="rgb(0,0,0)" stroke="none" d="M 5850,2400 L 6038,1838 5663,1838 5850,2400 Z"/>
      </g>
     </g>
     <g class="com.sun.star.drawing.CustomShape">
      <g id="id5">
       <path fill="none" stroke="rgb(0,0,0)" stroke-width="50" d="M 1200,4300 L 4001,4300 4001,5501 1200,5501 1200,4300 1200,4300 Z"/>
       <text class="TextShape"><tspan class="TextParagraph" font-family="Arial, sans-serif" font-size="388px" font-weight="400"><tspan class="TextPosition" x="1481" y="5035"><tspan fill="rgb(0,0,0)" stroke="none">print &apos;greater&apos;</tspan></tspan></tspan></text>
      </g>
     </g>
     <g class="com.sun.star.drawing.CustomShape">
      <g id="id6">
       <path fill="none" stroke="rgb(0,0,0)" stroke-width="50" d="M 7500,4300 L 10701,4300 10701,5501 7500,5501 7500,4300 7500,4300 Z"/>
       <text class="TextShape"><tspan class="TextParagraph" font-family="Arial, sans-serif" font-size="388px" font-weight="400"><tspan class="TextPosition" x="7656" y="5035"><tspan fill="rgb(0,0,0)" stroke="none">print &apos;not greater&apos;</tspan></tspan></tspan></text>
      </g>
     </g>
     <g class="com.sun.star.drawing.CustomShape">
      <g id="id7">
       <path fill="none" stroke="rgb(0,0,0)" stroke-width="50" d="M 4500,7400 L 7301,7400 7301,8601 4500,8601 4500,7400 4500,7400 Z"/>
       <text class="TextShape"><tspan class="TextParagraph" font-family="Arial, sans-serif" font-size="388px" font-weight="400"><tspan class="TextPosition" x="4963" y="8135"><tspan fill="rgb(0,0,0)" stroke="none">print &apos;done&apos;</tspan></tspan></tspan></text>
      </g>
     </g>
     <g class="com.sun.star.drawing.ConnectorShape">
      <g id="id8">
       <path fill="none" stroke="rgb(0,0,0)" stroke-width="50" d="M 4250,3250 L 2600,3250 2600,3763"/>
       <path fill="rgb(0,0,0)" stroke="none" d="M 2600,4300 L 2788,3738 2413,3738 2600,4300 Z"/>
      </g>
     </g>
     <g class="com.sun.star.drawing.ConnectorShape">
      <g id="id9">
       <path fill="none" stroke="rgb(0,0,0)" stroke-width="50" d="M 7450,3250 L 9100,3250 9100,3763"/>
       <path fill="rgb(0,0,0)" stroke="none" d="M 9100,4300 L 9288,3738 8913,3738 9100,4300 Z"/>
      </g>
     </g>
     <g class="com.sun.star.drawing.ConnectorShape">
      <g id="id10">
       <path fill="none" stroke="rgb(0,0,0)" stroke-width="50" d="M 2600,5500 L 2600,6250 5900,6250 5900,6863"/>
       <path fill="rgb(0,0,0)" stroke="none" d="M 5900,7400 L 6088,6838 5713,6838 5900,7400 Z"/>
      </g>
     </g>
     <g class="com.sun.star.drawing.ConnectorShape">
      <g id="id11">
       <path fill="none" stroke="rgb(0,0,0)" stroke-width="50" d="M 9100,5500 L 9100,6250 5900,6250 5900,6863"/>
       <path fill="rgb(0,0,0)" stroke="none" d="M 5900,7400 L 6088,6838 5713,6838 5900,7400 Z"/>
      </g>
     </g>
    </g>
   </g>
  </g>
 </g>
</svg>
